SVG_Azure_All/Storage Account Connectivity Check.svg

<?xml version="1.0" encoding="UTF-8" standalone="no"?>
<!-- Generated by Microsoft Visio, SVG Export Storage Account Connectivity Check.svg Page-1 -->

<svg
   xmlns:dc="http://purl.org/dc/elements/1.1/"
   xmlns:cc="http://creativecommons.org/ns#"
   xmlns:rdf="http://www.w3.org/1999/02/22-rdf-syntax-ns#"
   xmlns:svg="http://www.w3.org/2000/svg"
   xmlns="http://www.w3.org/2000/svg"
   xmlns:xlink="http://www.w3.org/1999/xlink"
   xmlns:sodipodi="http://sodipodi.sourceforge.net/DTD/sodipodi-0.dtd"
   xmlns:inkscape="http://www.inkscape.org/namespaces/inkscape"
   width="0.78731203in"
   height="0.66931778in"
   viewBox="0 0 56.686374 48.191129"
   xml:space="preserve"
   class="st3"
   version="1.1"
   id="svg52"
   sodipodi:docname="Storage Account Connectivity Check.svg"
   style="font-size:12px;overflow:visible;color-interpolation-filters:sRGB;fill:none;fill-rule:evenodd;stroke-linecap:square;stroke-miterlimit:3"
   inkscape:version="0.92.5 (2060ec1f9f, 2020-04-08)"><metadata
   id="metadata56"><rdf:RDF><cc:Work
       rdf:about=""><dc:format>image/svg+xml</dc:format><dc:type
         rdf:resource="http://purl.org/dc/dcmitype/StillImage" /></cc:Work></rdf:RDF></metadata><sodipodi:namedview
   pagecolor="#ffffff"
   bordercolor="#666666"
   borderopacity="1"
   objecttolerance="10"
   gridtolerance="10"
   guidetolerance="10"
   inkscape:pageopacity="0"
   inkscape:pageshadow="2"
   inkscape:window-width="640"
   inkscape:window-height="480"
   id="namedview54"
   showgrid="false"
   inkscape:zoom="1.5231781"
   inkscape:cx="37.79294"
   inkscape:cy="32.114457"
   inkscape:window-x="0"
   inkscape:window-y="0"
   inkscape:window-maximized="0"
   inkscape:current-layer="svg52" />
	<style
   type="text/css"
   id="style2">
	<![CDATA[
		.st1 {fill:url(#grad0-6);stroke:none;stroke-linecap:butt;stroke-width:34}
		.st2 {fill:#a3a3a3;stroke:none;stroke-linecap:butt;stroke-width:34}
		.st3 {fill:none;fill-rule:evenodd;font-size:12px;overflow:visible;stroke-linecap:square;stroke-miterlimit:3}
	]]>
	</style>

	<defs
   id="Patterns_And_Gradients">
		<linearGradient
   id="grad0-6"
   x1="0"
   y1="0"
   x2="1"
   y2="0"
   gradientTransform="rotate(-90,0.5,0.5)">
			<stop
   offset="0.2"
   stop-color="#0078d4"
   stop-opacity="1"
   id="stop4" />
			<stop
   offset="0.285"
   stop-color="#1380da"
   stop-opacity="1"
   id="stop6" />
			<stop
   offset="0.76"
   stop-color="#5ea0ef"
   stop-opacity="1"
   id="stop8" />
		</linearGradient>
	<linearGradient
   inkscape:collect="always"
   xlink:href="#grad0-6"
   id="linearGradient4566"
   gradientTransform="scale(1.1618938,0.86066389)"
   x1="0.0058226451"
   y1="117.39291"
   x2="17.624975"
   y2="117.39291"
   gradientUnits="userSpaceOnUse" /><linearGradient
   inkscape:collect="always"
   xlink:href="#grad0-6"
   id="linearGradient4568"
   gradientTransform="scale(1.1620389,0.86055641)"
   x1="0.0014213034"
   y1="117.40757"
   x2="17.622774"
   y2="117.40757"
   gradientUnits="userSpaceOnUse" /><linearGradient
   inkscape:collect="always"
   xlink:href="#grad0-6"
   id="linearGradient4570"
   gradientTransform="scale(1.1618939,0.86066377)"
   x1="0.0014214807"
   y1="117.39776"
   x2="17.620571"
   y2="117.39776"
   gradientUnits="userSpaceOnUse" /></defs>
	<g
   id="g50"
   transform="translate(-34.002069,-33.997337)">
		<title
   id="title12">Page-1</title>
		<g
   id="group1005-1"
   transform="translate(34,-34.0157)">
			<title
   id="title14">Storage Account Connectivity Check</title>
			<g
   id="group1006-2">
				<title
   id="title16">Sheet.1006</title>
				<g
   id="shape1007-3"
   transform="translate(0,-33.0228)">
					<title
   id="title18">Sheet.1007</title>
					<path
   d="m 20,102.43 -0.95,-0.93 a 1.62813,1.58895 -180 0 0 -2.3,0 l -9.22,8.99 -3.8,-3.7 a 1.62813,1.58895 -180 0 0 -2.3,0 l -0.95,0.94 a 1.62813,1.58895 -180 0 0 0,2.24 l 5.9,5.77 a 1.62813,1.58895 -180 0 0 1.15,0.46 1.62813,1.58895 -180 0 0 1.15,-0.46 L 20,104.68 a 1.62813,1.58895 -180 0 0 0,-2.25 z"
   class="st1"
   id="path20"
   inkscape:connector-curvature="0"
   style="fill:url(#linearGradient4566);stroke:none;stroke-width:34;stroke-linecap:butt" />
				</g>
				<g
   id="shape1008-7"
   transform="translate(22.9384,-37.3002)">
					<title
   id="title23">Sheet.1008</title>
					<path
   d="m 0,113.27 a 3.00561,2.93327 -180 0 0 3.01,2.93 h 27.74 a 3.00561,2.93327 -180 0 0 3,-2.93 v -0.15 a 3.00561,2.93327 -180 0 0 -3,-2.94 H 3.01 A 3.00561,2.93327 -180 0 0 0,113.12 Z"
   class="st2"
   id="path25"
   inkscape:connector-curvature="0"
   style="fill:#a3a3a3;stroke:none;stroke-width:34;stroke-linecap:butt" />
				</g>
				<g
   id="shape1009-9"
   transform="translate(22.9384,-21.0167)">
					<title
   id="title28">Sheet.1009</title>
					<path
   d="m 0,113.27 a 3.00561,2.93327 -180 0 0 3.01,2.93 h 27.74 a 3.00561,2.93327 -180 0 0 3,-2.93 v -0.15 a 3.00561,2.93327 -180 0 0 -3,-2.94 H 3.01 A 3.00561,2.93327 -180 0 0 0,113.12 Z"
   class="st2"
   id="path30"
   inkscape:connector-curvature="0"
   style="fill:#a3a3a3;stroke:none;stroke-width:34;stroke-linecap:butt" />
				</g>
				<g
   id="shape1010-11"
   transform="translate(22.9384,-4.73632)">
					<title
   id="title33">Sheet.1010</title>
					<path
   d="m 0,113.27 a 3.00561,2.93327 -180 0 0 3.01,2.93 h 27.74 a 3.00561,2.93327 -180 0 0 3,-2.93 v -0.15 a 3.00561,2.93327 -180 0 0 -3,-2.94 H 3.01 A 3.00561,2.93327 -180 0 0 0,113.12 Z"
   class="st2"
   id="path35"
   inkscape:connector-curvature="0"
   style="fill:#a3a3a3;stroke:none;stroke-width:34;stroke-linecap:butt" />
				</g>
				<g
   id="shape1011-13"
   transform="translate(0,-16.5073)">
					<title
   id="title38">Sheet.1011</title>
					<path
   d="m 20,102.43 -0.95,-0.93 a 1.62813,1.58895 -180 0 0 -2.3,0 l -9.22,8.99 -3.8,-3.7 a 1.62813,1.58895 -180 0 0 -2.3,0 l -0.95,0.93 a 1.62813,1.58895 -180 0 0 0,2.25 l 5.9,5.77 a 1.62813,1.58895 -180 0 0 1.15,0.46 1.62813,1.58895 -180 0 0 1.15,-0.46 L 20,104.68 a 1.62813,1.58895 -180 0 0 0,-2.25 z"
   class="st1"
   id="path40"
   inkscape:connector-curvature="0"
   style="fill:url(#linearGradient4568);stroke:none;stroke-width:34;stroke-linecap:butt" />
				</g>
				<g
   id="shape1012-16">
					<title
   id="title43">Sheet.1012</title>
					<path
   d="m 20,102.44 -0.95,-0.93 a 1.62813,1.58895 -180 0 0 -1.15,-0.47 1.6086,1.56988 -180 0 0 -1.15,0.47 l -9.22,8.98 -3.8,-3.69 a 1.62813,1.58895 -180 0 0 -2.3,0 l -0.95,0.92 a 1.62813,1.58895 -180 0 0 0,2.25 l 5.9,5.77 a 1.62813,1.58895 -180 0 0 2.3,0 L 20,104.68 a 1.62813,1.58895 -180 0 0 0,-2.24 z"
   class="st1"
   id="path45"
   inkscape:connector-curvature="0"
   style="fill:url(#linearGradient4570);stroke:none;stroke-width:34;stroke-linecap:butt" />
				</g>
			</g>
		</g>
	</g>
</svg>

<?xml version="1.0" encoding="UTF-8" standalone="no"?>
<!DOCTYPE svg PUBLIC "-//W3C//DTD SVG 1.1//EN" "http://www.w3.org/Graphics/SVG/1.1/DTD/svg11.dtd">
<!-- Generated by Microsoft Visio, SVG Export Storage Account Connectivity Check.svg Page-1 -->
<svg xmlns="http://www.w3.org/2000/svg" xmlns:xlink="http://www.w3.org/1999/xlink" xmlns:ev="http://www.w3.org/2001/xml-events"
		width="1.73185in" height="1.61395in" viewBox="0 0 124.693 116.205" xml:space="preserve" color-interpolation-filters="sRGB"
		class="st3">
	<style type="text/css">
	<![CDATA[
		.st1 {fill:url(#grad0-6);stroke:none;stroke-linecap:butt;stroke-width:34}
		.st2 {fill:#a3a3a3;stroke:none;stroke-linecap:butt;stroke-width:34}
		.st3 {fill:none;fill-rule:evenodd;font-size:12px;overflow:visible;stroke-linecap:square;stroke-miterlimit:3}
	]]>
	</style>

	<defs id="Patterns_And_Gradients">
		<linearGradient id="grad0-6" x1="0" y1="0" x2="1" y2="0" gradientTransform="rotate(-90 0.5 0.5)">
			<stop offset="0.2" stop-color="#0078d4" stop-opacity="1"/>
			<stop offset="0.285" stop-color="#1380da" stop-opacity="1"/>
			<stop offset="0.76" stop-color="#5ea0ef" stop-opacity="1"/>
		</linearGradient>
	</defs>
	<g>
		<title>Page-1</title>
		<g id="group990-1" transform="translate(34,-34.0157)">
			<title>Storage Account Connectivity Check</title>
			<g id="group991-2">
				<title>Sheet.991</title>
				<g id="shape992-3" transform="translate(2.79776E-13,-33.0228)">
					<title>Sheet.992</title>
					<path d="M20 102.43 L19.05 101.5 A1.62813 1.58895 -180 0 0 16.75 101.5 L7.53 110.49 L3.73 106.79 A1.62813 1.58895
								 -180 0 0 1.43 106.79 L0.48 107.73 A1.62813 1.58895 -180 0 0 0.48 109.97 L6.38 115.74 A1.62813 1.58895
								 -180 0 0 7.53 116.2 A1.62813 1.58895 -180 0 0 8.68 115.74 L20 104.68 A1.62813 1.58895 -180 0 0 20
								 102.43 Z" class="st1"/>
				</g>
				<g id="shape993-7" transform="translate(22.9384,-37.3002)">
					<title>Sheet.993</title>
					<path d="M0 113.27 A3.00561 2.93327 -180 0 0 3.01 116.2 L30.75 116.2 A3.00561 2.93327 -180 0 0 33.75 113.27 L33.75
								 113.12 A3.00561 2.93327 -180 0 0 30.75 110.18 L3.01 110.18 A3.00561 2.93327 -180 0 0 0 113.12 L0
								 113.27 Z" class="st2"/>
				</g>
				<g id="shape994-9" transform="translate(22.9384,-21.0167)">
					<title>Sheet.994</title>
					<path d="M0 113.27 A3.00561 2.93327 -180 0 0 3.01 116.2 L30.75 116.2 A3.00561 2.93327 -180 0 0 33.75 113.27 L33.75
								 113.12 A3.00561 2.93327 -180 0 0 30.75 110.18 L3.01 110.18 A3.00561 2.93327 -180 0 0 0 113.12 L0
								 113.27 Z" class="st2"/>
				</g>
				<g id="shape995-11" transform="translate(22.9384,-4.73632)">
					<title>Sheet.995</title>
					<path d="M0 113.27 A3.00561 2.93327 -180 0 0 3.01 116.2 L30.75 116.2 A3.00561 2.93327 -180 0 0 33.75 113.27 L33.75
								 113.12 A3.00561 2.93327 -180 0 0 30.75 110.18 L3.01 110.18 A3.00561 2.93327 -180 0 0 0 113.12 L0
								 113.27 Z" class="st2"/>
				</g>
				<g id="shape996-13" transform="translate(2.79776E-13,-16.5073)">
					<title>Sheet.996</title>
					<path d="M20 102.43 L19.05 101.5 A1.62813 1.58895 -180 0 0 16.75 101.5 L7.53 110.49 L3.73 106.79 A1.62813 1.58895
								 -180 0 0 1.43 106.79 L0.48 107.72 A1.62813 1.58895 -180 0 0 0.48 109.97 L6.38 115.74 A1.62813 1.58895
								 -180 0 0 7.53 116.2 A1.62813 1.58895 -180 0 0 8.68 115.74 L20 104.68 A1.62813 1.58895 -180 0 0 20
								 102.43 Z" class="st1"/>
				</g>
				<g id="shape997-16">
					<title>Sheet.997</title>
					<path d="M20 102.44 L19.05 101.51 A1.62813 1.58895 -180 0 0 17.9 101.04 A1.6086 1.56988 -180 0 0 16.75 101.51
								 L7.53 110.49 L3.73 106.8 A1.62813 1.58895 -180 0 0 1.43 106.8 L0.48 107.72 A1.62813 1.58895 -180
								 0 0 0.48 109.97 L6.38 115.74 A1.62813 1.58895 -180 0 0 8.68 115.74 L20 104.68 A1.62813 1.58895 -180
								 0 0 20 102.44 Z" class="st1"/>
				</g>
			</g>
		</g>
	</g>
</svg>
